polaris-icons/icons/new-icons/PackageMajor.svg

<svg width="20" height="20" viewBox="0 0 20 20" fill="none" xmlns="http://www.w3.org/2000/svg">
<path fill-rule="evenodd" clip-rule="evenodd" d="M7 9C6.44772 9 6 9.44771 6 10V13C6 13.5523 6.44771 14 7 14H11C11.5523 14 12 13.5523 12 13V10C12 9.44772 11.5523 9 11 9H7ZM7.5 12.5V10.5H10.5V12.5H7.5Z" fill="#4A4A4A"/>
<path fill-rule="evenodd" clip-rule="evenodd" d="M5.31463 4.44946C5.73645 3.85394 6.4209 3.5 7.15068 3.5H12.9472C13.6995 3.5 14.402 3.87598 14.8193 4.50192L16.0381 6.33013C16.3393 6.78186 16.5 7.31263 16.5 7.85555V14.75C16.5 15.7165 15.7165 16.5 14.75 16.5H5.25C4.2835 16.5 3.5 15.7165 3.5 14.75V7.88657C3.5 7.31712 3.67678 6.76171 4.00593 6.29703L5.31463 4.44946ZM7.15068 5C6.90742 5 6.67927 5.11798 6.53866 5.31649L5.70034 6.5H9.25V5H7.15068ZM10.75 6.5H14.3486L13.5713 5.33397C13.4322 5.12533 13.198 5 12.9472 5H10.75V6.5ZM15 8H5V14.75C5 14.8881 5.11193 15 5.25 15H14.75C14.8881 15 15 14.8881 15 14.75V8Z" fill="#4A4A4A"/>
</svg>

<svg viewBox="0 0 20 20" xmlns="http://www.w3.org/2000/svg"><path fill-rule="evenodd" d="M7 9a1 1 0 0 0-1 1v3a1 1 0 0 0 1 1h4a1 1 0 0 0 1-1v-3a1 1 0 0 0-1-1h-4Zm.5 3.5v-2h3v2h-3Z" fill="#5C5F62"/><path fill-rule="evenodd" d="M5.315 4.45a2.25 2.25 0 0 1 1.836-.95h5.796a2.25 2.25 0 0 1 1.872 1.002l1.22 1.828c.3.452.461.983.461 1.526v6.894a1.75 1.75 0 0 1-1.75 1.75h-9.5a1.75 1.75 0 0 1-1.75-1.75v-6.863c0-.57.177-1.125.506-1.59l1.309-1.848Zm1.836.55a.75.75 0 0 0-.612.316l-.839 1.184h3.55v-1.5h-2.1Zm3.599 1.5h3.599l-.778-1.166a.75.75 0 0 0-.624-.334h-2.197v1.5Zm4.25 1.5h-10v6.75c0 .138.112.25.25.25h9.5a.25.25 0 0 0 .25-.25v-6.75Z" fill="#5C5F62"/></svg>
